img/logo-2.svg

<svg width="40" height="52" viewBox="0 0 40 52" fill="none" xmlns="http://www.w3.org/2000/svg">
<path d="M16.9769 2.93452H17.1135C17.3665 2.93452 17.6397 2.95995 17.9104 2.98284C19.103 3.06695 20.2873 3.24551 21.452 3.51685V0.653528C20.2527 0.352628 19.0296 0.157776 17.7965 0.0712015C17.3285 0.0356008 16.8302 0.0127146 16.3192 0H15.8917C13.4168 0.00930695 10.9526 0.327052 8.55545 0.945963C5.82521 1.62687 3.20457 2.69275 0.771484 4.11189V32.5086C3.11421 31.2357 5.60704 30.2643 8.19117 29.6173C10.2315 29.0967 12.3174 28.7765 14.4193 28.6612H14.5028C14.8545 28.6434 15.2061 28.6332 15.5678 28.6306V25.7216C12.8366 25.7567 10.1192 26.1178 7.47273 26.7972C6.49372 27.0515 5.54761 27.3261 4.65967 27.6313L3.64778 27.9746V5.83344L4.08036 5.62492C7.38159 4.05951 10.9521 3.14863 14.5964 2.94215C14.6267 2.93994 14.6572 2.93994 14.6875 2.94215C15.0897 2.92181 15.4945 2.91163 15.8917 2.91163H16.3268H16.347C16.557 2.91672 16.7669 2.92181 16.9769 2.93452Z" fill="#AFB1B8"/>
<path d="M24.1108 5.93259C23.4455 5.93259 22.7877 5.9097 22.1528 5.86138C21.3939 5.80544 20.6147 5.7139 19.876 5.58929C19.4257 5.51301 18.983 5.42146 18.553 5.32229V33.3935C20.3737 33.8443 22.2433 34.0647 24.1184 34.0496C26.5931 34.0395 29.0571 33.7227 31.4546 33.1061C34.1853 32.4243 36.8067 31.3585 39.2411 29.9402V2.04956C36.8986 3.32178 34.4068 4.29396 31.8239 4.94339C29.3031 5.59083 26.7125 5.92307 24.1108 5.93259ZM35.3352 6.41828L36.3471 6.07753V28.2263L35.9145 28.4348C34.2552 29.2243 32.5223 29.8469 30.7412 30.2937C28.5781 30.8533 26.3544 31.1412 24.1209 31.1506C23.4531 31.1506 22.7903 31.1227 22.1477 31.0667L21.4546 31.0057V28.3178V8.22883L22.2616 8.28224C22.8485 8.32038 23.4556 8.33818 24.1158 8.33818C26.9514 8.3281 29.7749 7.96596 32.5221 7.25998C33.4657 7.01078 34.4042 6.73106 35.3352 6.41828Z" fill="#AFB1B8"/>
<path d="M2.73726 42.2123C2.59178 42.0614 2.41641 41.9429 2.22248 41.8645C2.02856 41.7861 1.82042 41.7495 1.61153 41.7571C1.38892 41.7541 1.16793 41.7956 0.961389 41.8791C0.772023 41.9546 0.599889 42.0679 0.455444 42.2123C0.312573 42.3571 0.201414 42.5303 0.12911 42.7208C0.0498013 42.9205 0.0102645 43.1339 0.0127426 43.3489V47.143C0.0036949 47.4103 0.0547102 47.6763 0.161996 47.9211C0.251555 48.1155 0.380847 48.2888 0.541455 48.4297C0.693075 48.5573 0.8711 48.6494 1.06258 48.6992C1.24706 48.7511 1.43768 48.7776 1.62924 48.7781C1.84053 48.7802 2.04965 48.735 2.24143 48.6458C2.43107 48.5629 2.60289 48.4437 2.74737 48.2949C2.88826 48.1475 3.00064 47.975 3.07877 47.7863C3.15985 47.595 3.20117 47.3891 3.2002 47.1811V46.7564H2.20854V47.0947C2.21149 47.2101 2.19172 47.3251 2.15036 47.4329C2.11807 47.5136 2.06889 47.5865 2.00617 47.6465C1.94474 47.6961 1.87428 47.7332 1.79873 47.7558C1.73176 47.7781 1.66182 47.7901 1.59129 47.7914C1.50275 47.8017 1.41308 47.7883 1.33134 47.7526C1.24961 47.7169 1.17871 47.6601 1.12582 47.588C1.03234 47.4355 0.986517 47.2583 0.994276 47.0794V43.5422C0.988124 43.3461 1.02981 43.1514 1.1157 42.9751C1.16718 42.8951 1.24002 42.8311 1.3259 42.7907C1.41178 42.7502 1.50725 42.7348 1.60141 42.7463C1.68689 42.7432 1.77182 42.7611 1.84893 42.7983C1.92603 42.8355 1.99301 42.8909 2.04411 42.9599C2.15508 43.1056 2.2131 43.285 2.20854 43.4685V43.7965H3.19008V43.41C3.19207 43.183 3.15085 42.9577 3.06865 42.7463C2.99539 42.5475 2.88264 42.3658 2.73726 42.2123Z" fill="#AFB1B8"/>
<path d="M8.62892 42.1692C8.31271 41.9022 7.91362 41.7547 7.50066 41.7522C7.29868 41.7531 7.09838 41.7892 6.9087 41.859C6.71613 41.928 6.53841 42.0333 6.38505 42.1692C6.22076 42.3169 6.08968 42.4981 6.00053 42.7007C5.90063 42.9325 5.85146 43.1831 5.85634 43.4356V47.0745C5.8495 47.3305 5.89873 47.5849 6.00053 47.8196C6.09028 48.0153 6.22152 48.1889 6.38505 48.3282C6.53665 48.4689 6.71468 48.5779 6.9087 48.6486C7.09838 48.7184 7.29868 48.7545 7.50066 48.7554C7.70269 48.755 7.90307 48.7188 8.09262 48.6486C8.28995 48.5769 8.47195 48.4681 8.62892 48.3282C8.7871 48.1862 8.91454 48.0131 9.00332 47.8196C9.10512 47.5849 9.15435 47.3305 9.14751 47.0745V43.4356C9.15239 43.1831 9.10322 42.9325 9.00332 42.7007C8.91505 42.5002 8.78775 42.3195 8.62892 42.1692ZM8.16598 47.0745C8.17434 47.1715 8.16095 47.2691 8.1268 47.3602C8.09265 47.4513 8.03861 47.5336 7.96866 47.6009C7.83768 47.7107 7.67251 47.7709 7.50193 47.7709C7.33135 47.7709 7.16617 47.7107 7.03519 47.6009C6.96524 47.5336 6.9112 47.4513 6.87705 47.3602C6.8429 47.2691 6.82952 47.1715 6.83787 47.0745V43.4356C6.82952 43.3386 6.8429 43.241 6.87705 43.1499C6.9112 43.0588 6.96524 42.9765 7.03519 42.9092C7.16617 42.7994 7.33135 42.7392 7.50193 42.7392C7.67251 42.7392 7.83768 42.7994 7.96866 42.9092C8.03861 42.9765 8.09265 43.0588 8.1268 43.1499C8.16095 43.241 8.17434 43.3386 8.16598 43.4356V47.0745Z" fill="#AFB1B8"/>
<path d="M16.3673 48.6993V41.8105H15.4136L14.1614 45.4571H14.1437L12.8813 41.8105H11.9377V48.6993H12.9218V44.5086H12.9395L13.9033 47.4711H14.3941L15.3655 44.5086H15.3832V48.6993H16.3673Z" fill="#AFB1B8"/>
<path d="M21.9579 42.2938C21.8064 42.1238 21.6151 41.9944 21.4014 41.9174C21.1711 41.8425 20.93 41.8064 20.688 41.8106H19.2258V48.6994H20.2074V46.009H20.7133C21.0196 46.0229 21.3243 45.9582 21.5987 45.8208C21.8219 45.6969 22.0079 45.5151 22.1375 45.2944C22.2511 45.1112 22.3276 44.9073 22.3627 44.6943C22.4013 44.4351 22.4191 44.1732 22.4158 43.9111C22.4253 43.5803 22.393 43.2496 22.3197 42.927C22.2542 42.6886 22.1298 42.4708 21.9579 42.2938ZM21.452 44.3942C21.4477 44.519 21.4167 44.6413 21.3609 44.7528C21.3048 44.8587 21.2161 44.9435 21.1079 44.9944C20.9625 45.0594 20.8039 45.089 20.645 45.0808H20.1972V42.7388H20.7032C20.8555 42.7313 21.0074 42.761 21.1459 42.8253C21.2474 42.8835 21.328 42.9725 21.3761 43.0795C21.4297 43.2006 21.459 43.3311 21.4621 43.4635C21.4621 43.6085 21.4621 43.7611 21.4621 43.9213C21.4621 44.0815 21.4722 44.2467 21.4621 44.3942H21.452Z" fill="#AFB1B8"/>
<path d="M26.6077 41.8105H25.8032L24.2854 48.6993H25.2669L25.5553 47.2193H26.8935L27.1819 48.6993H28.1635L26.6077 41.8105ZM25.702 46.281L26.1852 43.7838H26.2029L26.6836 46.281H25.702Z" fill="#AFB1B8"/>
<path d="M32.9496 45.9606H32.9319L31.4494 41.8105H30.5059V48.6993H31.4874V44.5569H31.5076L33.0078 48.6993H33.9311V41.8105H32.9496V45.9606Z" fill="#AFB1B8"/>
<path d="M38.9476 41.8105L38.1583 44.5493H38.1381L37.3488 41.8105H36.3091L37.6574 45.7877V48.6993H38.639V45.7877L39.9873 41.8105H38.9476Z" fill="#AFB1B8"/>
<path d="M0 50.6447H0.473058V51.972H0.794333V50.6447H1.26486V50.3726H0V50.6447Z" fill="#AFB1B8"/>
<path d="M3.97672 50.3726L3.35693 51.972H3.69845L3.82999 51.6084H4.46748L4.60409 51.972H4.95319L4.31823 50.3726H3.97672ZM3.92612 51.3389L4.14368 50.7464L4.36123 51.3389H3.92612Z" fill="#AFB1B8"/>
<path d="M7.90793 51.3821H8.27727V51.5881C8.16941 51.6746 8.03576 51.722 7.89781 51.7229C7.8333 51.7265 7.76886 51.7145 7.70988 51.688C7.65091 51.6614 7.59911 51.6211 7.55883 51.5703C7.47402 51.4485 7.43217 51.3017 7.43993 51.1533C7.43993 50.7973 7.59424 50.6193 7.90034 50.6193C7.98091 50.6112 8.06168 50.6325 8.12804 50.6791C8.19439 50.7257 8.24194 50.7947 8.26209 50.8735L8.57831 50.8125C8.51001 50.4997 8.28486 50.3421 7.90034 50.3421C7.69468 50.3366 7.4947 50.4103 7.34127 50.5481C7.26069 50.6276 7.19834 50.7239 7.15858 50.8302C7.11882 50.9365 7.10261 51.0502 7.11107 51.1634C7.10175 51.3823 7.17493 51.5966 7.31598 51.7636C7.39434 51.8444 7.4892 51.9071 7.59401 51.9475C7.69883 51.9879 7.8111 52.0049 7.92311 51.9975C8.17338 52.0045 8.41652 51.9133 8.60108 51.7432V51.1126H7.90793V51.3821Z" fill="#AFB1B8"/>
<path d="M11.9227 50.3726H11.5989V51.972H12.7195V51.7H11.9227V50.3726Z" fill="#AFB1B8"/>
<path d="M15.3175 50.3726H14.9937V51.972H15.3175V50.3726Z" fill="#AFB1B8"/>
<path d="M18.6364 51.4406L17.9812 50.3726H17.6675V51.972H17.9685V50.9269L18.6111 51.972H18.9323V50.3726H18.6364V51.4406Z" fill="#AFB1B8"/>
<path d="M21.6368 51.2677H22.4337V50.9956H21.6368V50.6447H22.4944V50.3726H21.313V51.972H22.5273V51.7H21.6368V51.2677Z" fill="#AFB1B8"/>
<path d="M28.9121 51.0032H28.2822V50.3726H27.9609V51.972H28.2822V51.2728H28.9121V51.972H29.2334V50.3726H28.9121V51.0032Z" fill="#AFB1B8"/>
<path d="M31.9302 51.2677H32.7296V50.9956H31.9302V50.6447H32.7903V50.3726H31.6089V51.972H32.8206V51.7H31.9302V51.2677Z" fill="#AFB1B8"/>
<path d="M36.0233 51.2676C36.3015 51.2244 36.4432 51.0769 36.4432 50.8226C36.4513 50.7546 36.441 50.6856 36.4134 50.623C36.3858 50.5603 36.3419 50.5063 36.2863 50.4666C36.1415 50.3938 35.9799 50.3614 35.8183 50.3725H35.1404V51.972H35.4617V51.3032H35.5249C35.5934 51.299 35.6619 51.3112 35.7247 51.3388C35.7717 51.3678 35.8108 51.4079 35.8386 51.4558L36.1877 51.9644H36.5722L36.3774 51.6516C36.2913 51.4972 36.1699 51.3656 36.0233 51.2676ZM35.6994 51.0464H35.4617V50.6446H35.7146C35.8248 50.6357 35.9357 50.6486 36.041 50.6827C36.0644 50.7034 36.0828 50.7291 36.095 50.7579C36.1072 50.7867 36.1127 50.8179 36.1113 50.8492C36.1098 50.8804 36.1014 50.911 36.0866 50.9385C36.0718 50.966 36.051 50.9899 36.0258 51.0082C35.9202 51.0406 35.8096 51.0535 35.6994 51.0464Z" fill="#AFB1B8"/>
<path d="M39.1094 51.2677H39.9063V50.9956H39.1094V50.6447H39.9696V50.3726H38.7856V51.972H39.9999V51.7H39.1094V51.2677Z" fill="#AFB1B8"/>
</svg>

<svg width="40" height="52" fill="none" xmlns="http://www.w3.org/2000/svg"><path d="M16.977 2.935h.136c.253 0 .527.025.797.048 1.193.084 2.377.263 3.542.534V.654A21.09 21.09 0 0017.797.07 29.24 29.24 0 0016.319 0h-.427c-2.475.01-4.94.327-7.337.946-2.73.68-5.35 1.747-7.784 3.166v28.397a31.634 31.634 0 017.42-2.892 32.36 32.36 0 016.228-.956h.084c.351-.018.703-.028 1.065-.03v-2.91a34.328 34.328 0 00-8.095 1.076c-.98.255-1.925.53-2.813.834l-1.012.344V5.833l.432-.208a28.275 28.275 0 0110.516-2.683.627.627 0 01.091 0c.403-.02.808-.03 1.205-.03h.455c.21.005.42.01.63.023z" fill="#AFB1B8"/><path d="M24.11 5.933a25.913 25.913 0 01-4.234-.344c-.45-.076-.893-.168-1.323-.267v28.072c1.82.45 3.69.67 5.565.656a29.943 29.943 0 007.337-.944 29.815 29.815 0 007.786-3.166V2.05a31.777 31.777 0 01-7.417 2.893c-2.52.648-5.112.98-7.713.99zm11.225.485l1.012-.34v22.148l-.433.209a27.764 27.764 0 01-5.173 1.859c-2.163.56-4.387.847-6.62.857-.668 0-1.33-.028-1.973-.084l-.693-.061V8.228l.807.054c.587.038 1.194.056 1.854.056 2.835-.01 5.659-.372 8.406-1.078.944-.25 1.882-.529 2.813-.842zM2.737 42.212a1.492 1.492 0 00-1.125-.455 1.674 1.674 0 00-.65.122 1.463 1.463 0 00-.832.842c-.08.2-.12.413-.117.628v3.794c-.01.267.042.533.149.778.09.194.219.368.38.509.151.127.33.22.52.27.185.051.376.078.567.078.212.002.42-.043.612-.132a1.597 1.597 0 00.96-1.465v-.425h-.992v.339a.882.882 0 01-.059.338.608.608 0 01-.144.214.697.697 0 01-.415.145.504.504 0 01-.465-.204.899.899 0 01-.132-.509v-3.537c-.006-.196.036-.39.122-.567a.507.507 0 01.485-.229.526.526 0 01.443.214.806.806 0 01.165.508v.328h.981v-.386a1.788 1.788 0 00-.121-.664 1.562 1.562 0 00-.332-.534zM8.629 42.17a1.765 1.765 0 00-1.128-.418c-.202.001-.403.037-.592.107a1.559 1.559 0 00-.908.842c-.1.232-.15.482-.145.735v3.639c-.006.255.043.51.145.745.09.195.22.369.384.508.152.14.33.25.524.32.19.07.39.106.592.107a1.714 1.714 0 001.128-.427c.158-.142.286-.315.374-.508.102-.235.151-.49.145-.745v-3.64a1.77 1.77 0 00-.145-.734 1.643 1.643 0 00-.374-.532zm-.463 4.904a.654.654 0 01-.197.527.727.727 0 01-.934 0 .651.651 0 01-.197-.526v-3.64a.654.654 0 01.197-.526.727.727 0 01.934 0 .651.651 0 01.197.527v3.639zM16.367 48.7v-6.89h-.953l-1.253 3.647h-.017L12.88 41.81h-.943v6.89h.984v-4.191h.018l.963 2.962h.491l.972-2.962h.017v4.19h.984zM21.958 42.294c-.152-.17-.343-.3-.557-.377a2.184 2.184 0 00-.713-.106h-1.462v6.888h.981v-2.69h.506c.307.014.611-.05.886-.188a1.43 1.43 0 00.538-.527c.114-.183.19-.387.226-.6.038-.259.056-.52.053-.783.01-.33-.023-.661-.096-.984a1.466 1.466 0 00-.362-.633zm-.506 2.1a.868.868 0 01-.091.359.553.553 0 01-.253.241 1.007 1.007 0 01-.463.087h-.448v-2.342h.506a.941.941 0 01.443.086.556.556 0 01.23.255c.054.12.083.251.086.384v.457c0 .16.01.326 0 .473h-.01zM26.608 41.81h-.805l-1.518 6.89h.982l.288-1.48h1.338l.289 1.48h.982l-1.556-6.89zm-.906 4.471l.483-2.497h.018l.48 2.497h-.981zM32.95 45.96h-.018l-1.483-4.15h-.943v6.89h.981v-4.143h.02l1.5 4.142h.924V41.81h-.981v4.15zM38.948 41.81l-.79 2.74h-.02l-.79-2.74H36.31l1.348 3.978v2.911h.982v-2.911l1.348-3.977h-1.04zM0 50.645h.473v1.327h.321v-1.327h.47v-.272H0v.272zM3.977 50.373l-.62 1.599h.341l.132-.364h.637l.137.364h.35l-.636-1.6h-.341zm-.05.966l.217-.593.217.593h-.435zM7.908 51.382h.37v.206a.613.613 0 01-.38.135.404.404 0 01-.34-.153.669.669 0 01-.118-.417c0-.356.154-.534.46-.534a.337.337 0 01.362.255l.316-.062c-.068-.312-.293-.47-.678-.47a.804.804 0 00-.559.206.78.78 0 00-.23.615.873.873 0 00.205.6.776.776 0 00.607.235.96.96 0 00.678-.255v-.63h-.693v.27zM11.923 50.373h-.324v1.599h1.12V51.7h-.796v-1.327zM15.318 50.373h-.324v1.599h.324v-1.6zM18.636 51.44l-.655-1.067h-.314v1.599h.301v-1.045l.643 1.045h.321v-1.6h-.296v1.069zM21.637 51.268h.797v-.272h-.797v-.351h.857v-.272h-1.181v1.599h1.214V51.7h-.89v-.432zM28.912 51.003h-.63v-.63h-.321v1.599h.321v-.7h.63v.7h.321v-1.6h-.32v.631zM31.93 51.268h.8v-.272h-.8v-.351h.86v-.272H31.61v1.599h1.212V51.7h-.89v-.432zM36.023 51.268c.278-.044.42-.191.42-.445a.383.383 0 00-.157-.356.904.904 0 00-.468-.094h-.678v1.599h.322v-.669h.063a.431.431 0 01.2.036c.047.029.086.069.114.117l.349.508h.384l-.195-.312a1.115 1.115 0 00-.354-.384zm-.324-.222h-.237v-.401h.253a.84.84 0 01.326.038.21.21 0 01-.015.325.913.913 0 01-.327.038zM39.11 51.268h.796v-.272h-.797v-.351h.86v-.272h-1.183v1.599H40V51.7h-.89v-.432z" fill="#AFB1B8"/></svg>
